X:1
T:Title
%%score { ( 1 4 ) | ( 2 3 ) }
L:1/8
M:4/4
K:Bb
V:1 treble nm="Grand Piano"
V:4 treble 
V:2 bass 
V:3 bass 
V:1
 z4 z2[Q:1/4=100] [DF][DF] | [DB]2 [DB]2 [DB]d[DB][Fd] |[M:3/4] [DFB]4 [DB]2 |[M:1/4] [DF][DF] | %4
[M:4/4] G2 G2 GB[FA][EG] |[M:3/4] [DF]6 |[M:1/4] [DF][DF] |[M:4/4] [DB]2 [DB]2 [DB]d[DB][Fd] | %8
[M:3/4] [DFB]4 [B,DB]2 |[M:1/4] AB |[M:4/4] c2 c2 cedc |[M:3/4] [DB]6 |[M:1/4] Bd |[M:4/4] f6 z2 | %14
 c4 z4 | [Ae]6 z2 | [Fd]6 z2 | [EG]6 z2 | B,B,B,B, [DB]2 [DB][Fd] | [Fc]6 z2 |[M:3/4] B6 |] %21
V:2
 z4 z2 [B,,B,][B,,B,] | [B,,F,]2 [B,,F,]2 F,[B,F]F,B, |[M:3/4] B,,4 [B,,B,]2 | %3
[M:1/4] [B,,B,][B,,B,] |[M:4/4] [E,B,E]2 [E,B,E]2 EG [E,B,]2 |[M:3/4] [B,,B,]6 | %6
[M:1/4] [B,,B,][B,,B,] |[M:4/4] z4 .F,2 .F,2 |[M:3/4] B,,4 B,,2 |[M:1/4] [F,CF][F,B,D] | %10
[M:4/4] [F,A,F]2 [F,A,F]2 [F,F]-[F,CF][B,F][A,E] |[M:3/4] [B,,F,]6 |[M:1/4][K:treble] [B,D][B,F] | %13
[M:4/4] B-[B,B-][B,B-][B,B-] [B,B][B,DB][B,F][K:bass][B,D] | F4 z4 | %15
 [F,C]F,F,F, F,[F,B,F][F,A,E][F,B,D] | [B,,B,]B,,B,,B,, B,,2 B,,B,, | E,E,E,E, E,E,E,E, | %18
 B,,B,,B,,B,, [B,,B,][B,,B,][B,,B,][B,,B,] | [F,A,]F,F,F, F,[F,A,F][F,A,F][F,A,E] | %20
[M:3/4] F,2 z2 z2 |] %21
V:3
 x8 | z4 B,,2 B,,2 |[M:3/4] x6 |[M:1/4] x2 |[M:4/4] z4 [E,B,]2 z2 |[M:3/4] x6 |[M:1/4] x2 | %7
[M:4/4] [B,,F,]2 [B,,F,]2 B,,-[B,,B,F]B,,-[B,,B,] |[M:3/4] x6 |[M:1/4] x2 |[M:4/4] z4 .A,2 F,2 | %11
[M:3/4] x6 |[M:1/4][K:treble] x2 |[M:4/4] .[B,D]2 z2 z4[K:bass] | %14
 [F,A,]F,F,F, [F,CF]2 [F,A,C][F,A,C] | x8 | x8 | x8 | x8 | x8 | %20
[M:3/4] B,,2- [B,,-G,][B,,-G,] [B,,F,]2 |] %21
V:4
 x8 | x8 |[M:3/4] x6 |[M:1/4] x2 |[M:4/4] x8 |[M:3/4] x6 |[M:1/4] x2 |[M:4/4] x8 |[M:3/4] x6 | %9
[M:1/4] x2 |[M:4/4] x8 |[M:3/4] x6 |[M:1/4] x2 |[M:4/4] z DDD DfdB | z A,A,A, A2 FF | z CCC CdcB | %16
 z B,B,B, B,2 [B,DF][B,DF] | B,B,B,B, B,[B,GB][B,FA][B,EG] | [DF]4 z4 | z A,A,A, A,cdc | %20
[M:3/4] D2 EE D2 |] %21

